svg/filled/clear-character.svg

<svg width="24" height="24" viewBox="0 0 24 24" fill="none" xmlns="http://www.w3.org/2000/svg">
<path fill-rule="evenodd" clip-rule="evenodd" d="M8.00003 5C7.82888 5 7.66825 5.08261 7.5687 5.22183L3.64604 10.7077C3.25585 11.2534 3.23706 11.9816 3.59858 12.5466L7.58035 18.7703C7.67192 18.9134 7.83012 19 8.00003 19H19.3589C20.2653 19 21 18.2653 21 17.3589V6.64109C21 5.73474 20.2653 5 19.3589 5H8.00003ZM9.64645 8.14645C9.84171 7.95118 10.1583 7.95118 10.3536 8.14645L13.4807 11.2736L16.575 8.14818C16.7693 7.95194 17.0859 7.95036 17.2821 8.14464C17.4784 8.33892 17.4799 8.6555 17.2857 8.85174L14.1878 11.9807L17.3536 15.1464C17.5488 15.3417 17.5488 15.6583 17.3536 15.8536C17.1583 16.0488 16.8417 16.0488 16.6464 15.8536L13.4843 12.6914L10.3553 15.8518C10.161 16.048 9.84446 16.0496 9.64822 15.8553C9.45199 15.661 9.4504 15.3445 9.64468 15.1482L12.7771 11.9843L9.64645 8.85355C9.45119 8.65829 9.45119 8.34171 9.64645 8.14645Z" fill="black"/>
</svg>

<svg xmlns="http://www.w3.org/2000/svg" viewBox="0 0 24 24" fill="currentColor">
  <path fill-rule="evenodd" d="M8 5a.53.53 0 00-.431.222l-3.923 5.486a1.641 1.641 0 00-.047 1.839L7.58 18.77c.092.143.25.23.42.23h11.359c.906 0 1.641-.735 1.641-1.641V6.64C21 5.735 20.265 5 19.359 5H8zm1.646 3.146a.5.5 0 01.708 0l3.127 3.128 3.094-3.126a.5.5 0 01.71.704l-3.097 3.129 3.166 3.165a.5.5 0 01-.708.708l-3.162-3.163-3.129 3.16a.5.5 0 01-.71-.703l3.132-3.164-3.13-3.13a.5.5 0 010-.708z" clip-rule="evenodd"/>
</svg>
